X: 42280
T: Weaver's Delight, The
R: polka
M: 2/4
K: Dmajor
AG|FG/F/ ED|dc/d/ ed|cA AF|G2 AG|
FG/F/ ED|dc/d/ ed|cA AG|A2:|
fg|af ge|fd e>d|cd ef|g2 gf/g/|
af ge|fd e>d|cA AG|A2:|

